svgs/duotone/taxi.svg

<svg xmlns="http://www.w3.org/2000/svg" viewBox="0 0 512 512"><!-- Font Awesome Pro 6.0.0-alpha2 by @fontawesome - https://fontawesome.com License - https://fontawesome.com/license (Commercial License) --><defs><style>.fa-secondary{opacity:.4}</style></defs><path d="M352 32C352 14.326 337.674 0 320 0H192C174.326 0 160 14.326 160 32V64H352V32ZM0 480C0 497.672 14.328 512 32 512H64C81.672 512 96 497.672 96 480V432H0V480ZM346.805 128H165.195C151.398 128 139.195 136.793 134.836 149.881L110.129 224H401.871L377.164 149.881C372.805 136.793 360.602 128 346.805 128ZM416 432V480C416 497.672 430.328 512 448 512H480C497.672 512 512 497.672 512 480V432H416Z" class="fa-secondary"/><path d="M470.789 228.371L437.883 129.643C424.812 90.441 388.129 64 346.805 64H165.195C123.871 64 87.188 90.441 74.117 129.643L41.211 228.371C17.156 237.576 0 260.709 0 288V432H512V288C512 260.709 494.844 237.576 470.789 228.371ZM134.836 149.881C139.195 136.793 151.398 128 165.195 128H346.805C360.602 128 372.805 136.793 377.164 149.881L401.871 224H110.129L134.836 149.881ZM96 352C78.328 352 64 337.672 64 320C64 302.326 78.328 288 96 288S128 302.326 128 320C128 337.672 113.672 352 96 352ZM416 352C398.328 352 384 337.672 384 320C384 302.326 398.328 288 416 288S448 302.326 448 320C448 337.672 433.672 352 416 352Z" class="fa-primary"/></svg>

<svg xmlns="http://www.w3.org/2000/svg" viewBox="0 0 512 512"><!--! Font Awesome Pro 6.0.0-alpha3 by @fontawesome - https://fontawesome.com License - https://fontawesome.com/license (Commercial License) --><defs><style>.fa-secondary{opacity:.4}</style></defs><path class="fa-primary" d="M470.8 228.4l-32.91-98.73C424.8 90.44 388.1 64 346.8 64h-181.6C123.9 64 87.19 90.44 74.12 129.6L41.21 228.4C17.16 237.6 0 260.7 0 288v144h512V288C512 260.7 494.8 237.6 470.8 228.4zM134.8 149.9C139.2 136.8 151.4 128 165.2 128h181.6c13.8 0 26 8.793 30.36 21.88L401.9 224H110.1L134.8 149.9zM96 352c-17.67 0-32-14.33-32-32c0-17.67 14.33-32 32-32s32 14.33 32 32C128 337.7 113.7 352 96 352zM416 352c-17.67 0-32-14.33-32-32c0-17.67 14.33-32 32-32s32 14.33 32 32C448 337.7 433.7 352 416 352z"/><path class="fa-secondary" d="M352 32c0-17.67-14.33-32-32-32H192C174.3 0 160 14.33 160 32l.0313 32l191.9-.001L352 32zM0 480c0 17.67 14.33 32 32 32h32c17.67 0 32-14.33 32-32v-48H0V480zM346.8 128h-181.6c-13.8 0-26 8.793-30.36 21.88L110.1 224h291.7L377.2 149.9C372.8 136.8 360.6 128 346.8 128zM416 432V480c0 17.67 14.33 32 32 32h32c17.67 0 32-14.33 32-32v-48H416z"/></svg>
